public/icons/weather-icons/Rain.svg

<svg width="249" height="204" viewBox="0 0 249 204" fill="none" xmlns="http://www.w3.org/2000/svg">
<path d="M61.6263 151.552C62.4784 151.561 71.1153 165.047 71.1153 170.288C71.1153 172.805 70.1156 175.218 68.336 176.998C66.5565 178.777 64.143 179.777 61.6263 179.777C59.1097 179.777 56.6961 178.777 54.9166 176.998C53.1371 175.218 52.1373 172.805 52.1373 170.288C52.1373 165.048 60.7748 151.542 61.6263 151.552Z" fill="#42A0F0"/>
<path d="M54.3918 173.834C55.3399 174.124 56.5449 172.932 57.0833 171.171C57.6216 169.411 57.2893 167.748 56.3412 167.458C55.393 167.168 54.188 168.361 53.6497 170.122C53.1114 171.882 53.4436 173.545 54.3918 173.834Z" fill="white"/>
<path d="M111.154 151.552C112.006 151.561 120.643 165.047 120.643 170.288C120.643 172.805 119.643 175.218 117.863 176.998C116.084 178.777 113.67 179.777 111.154 179.777C108.637 179.777 106.223 178.777 104.444 176.998C102.664 175.218 101.665 172.805 101.665 170.288C101.665 165.048 110.302 151.542 111.154 151.552Z" fill="#42A0F0"/>
<path d="M103.919 173.834C104.867 174.124 106.072 172.932 106.61 171.171C107.149 169.411 106.817 167.748 105.868 167.458C104.92 167.168 103.715 168.361 103.177 170.122C102.639 171.882 102.971 173.545 103.919 173.834Z" fill="white"/>
<path d="M160.681 151.552C161.533 151.561 170.17 165.047 170.17 170.288C170.17 172.805 169.17 175.218 167.39 176.998C165.611 178.777 163.197 179.777 160.681 179.777C158.164 179.777 155.751 178.777 153.971 176.998C152.192 175.218 151.192 172.805 151.192 170.288C151.192 165.048 159.829 151.542 160.681 151.552Z" fill="#42A0F0"/>
<path d="M153.446 173.834C154.394 174.124 155.599 172.932 156.138 171.171C156.676 169.411 156.344 167.748 155.396 167.458C154.447 167.168 153.242 168.361 152.704 170.122C152.166 171.882 152.498 173.545 153.446 173.834Z" fill="white"/>
<path d="M86.6562 110.013C87.5083 110.022 96.1452 123.508 96.1452 128.749C96.1452 131.266 95.1455 133.679 93.366 135.459C91.5864 137.238 89.1729 138.238 86.6562 138.238C84.1396 138.238 81.726 137.238 79.9465 135.459C78.167 133.679 77.1672 131.266 77.1672 128.749C77.1672 123.509 85.8047 110.003 86.6562 110.013Z" fill="#42A0F0"/>
<path d="M79.4216 132.296C80.3698 132.585 81.5748 131.393 82.1131 129.632C82.6514 127.872 82.3192 126.209 81.371 125.919C80.4229 125.629 79.2178 126.822 78.6795 128.583C78.1412 130.343 78.4735 132.006 79.4216 132.296Z" fill="white"/>
<path d="M138.846 110.013C139.698 110.022 148.335 123.508 148.335 128.749C148.335 131.266 147.335 133.679 145.556 135.459C143.776 137.238 141.363 138.238 138.846 138.238C136.33 138.238 133.916 137.238 132.136 135.459C130.357 133.679 129.357 131.266 129.357 128.749C129.357 123.509 137.995 110.003 138.846 110.013Z" fill="#42A0F0"/>
<path d="M131.612 132.296C132.56 132.585 133.765 131.393 134.303 129.632C134.841 127.872 134.509 126.209 133.561 125.919C132.613 125.629 131.408 126.822 130.869 128.583C130.331 130.343 130.663 132.006 131.612 132.296Z" fill="white"/>
<g filter="url(#filter0_d_1506_808)">
<path d="M160.245 145.694H58.2973C48.4076 145.686 38.9043 141.853 31.7767 134.997C24.649 128.141 20.4499 118.794 20.0582 108.912C19.6665 99.0303 23.1126 89.3799 29.6752 81.9814C36.2378 74.5828 45.408 70.0097 55.2661 69.2195C56.6719 59.2927 61.1545 50.0565 68.0833 42.8103C75.0121 35.564 84.0384 30.6724 93.8922 28.8236C103.746 26.9748 113.932 28.2618 123.016 32.5037C132.1 36.7455 139.626 43.7287 144.534 52.4707C153.537 49.3543 163.264 48.9901 172.475 51.4248C181.686 53.8595 189.962 58.9825 196.249 66.1406C202.536 73.2986 206.549 82.1672 207.774 91.615C209 101.063 207.384 110.662 203.132 119.187C200.637 126.89 195.765 133.604 189.217 138.366C182.669 143.128 174.781 145.693 166.684 145.694H160.245Z" fill="url(#paint0_linear_1506_808)"/>
<path d="M166.684 145.161C170.795 145.161 174.837 144.504 178.698 143.21C182.431 141.958 185.936 140.131 189.115 137.78C192.258 135.456 195.013 132.672 197.303 129.505C199.622 126.299 201.413 122.773 202.625 119.023L202.638 118.985L202.656 118.949C204.268 115.728 205.509 112.32 206.345 108.822C207.206 105.221 207.642 101.501 207.642 97.7639C207.642 94.5477 207.318 91.3338 206.679 88.2112C206.056 85.1683 205.127 82.1752 203.917 79.3151C202.729 76.5067 201.259 73.798 199.547 71.2642C197.852 68.7544 195.904 66.3942 193.759 64.2492C191.614 62.1043 189.254 60.1569 186.744 58.4613C184.211 56.7495 181.502 55.2792 178.694 54.0914C175.833 52.8816 172.84 51.9525 169.797 51.3298C166.675 50.6908 163.461 50.3669 160.245 50.3669C154.919 50.3669 149.692 51.2432 144.709 52.9717L144.288 53.1175L144.07 52.7296C140.014 45.5178 134.115 39.4614 127.009 35.2149C123.416 33.0673 119.555 31.4078 115.535 30.2823C111.387 29.1213 107.078 28.5326 102.729 28.5326C96.8793 28.5326 91.1689 29.5854 85.7566 31.6618C80.5279 33.6678 75.7315 36.5654 71.5004 40.2742C67.2937 43.9617 63.8027 48.3126 61.1243 53.2061C58.3801 58.2197 56.5865 63.6315 55.7934 69.2913L55.7341 69.7149L55.3076 69.7483C50.5369 70.1217 45.9469 71.3778 41.6651 73.4815C37.5046 75.5257 33.7894 78.2906 30.6228 81.6994C24.116 88.7038 20.5326 97.8298 20.5326 107.396C20.5326 112.495 21.531 117.44 23.5001 122.096C24.4465 124.333 25.6179 126.492 26.9819 128.51C28.3329 130.51 29.8845 132.391 31.5936 134.1C33.3026 135.809 35.1832 137.361 37.183 138.712C39.2019 140.076 41.3601 141.247 43.5977 142.193C48.2531 144.162 53.1987 145.161 58.2971 145.161H160.245H166.684ZM166.684 145.693H160.245H58.2971C37.1463 145.693 20 128.547 20 107.396C20 87.2653 35.5316 70.7621 55.266 69.2174C58.5303 45.9243 78.5364 28 102.729 28C120.677 28 136.321 37.8645 144.534 52.4685C149.456 50.7615 154.742 49.8343 160.245 49.8343C186.715 49.8343 208.174 71.2933 208.174 97.7639C208.174 105.464 206.359 112.74 203.132 119.187C198.159 134.568 183.721 145.693 166.684 145.693Z" fill="white" fill-opacity="0.5"/>
</g>
<defs>
<filter id="filter0_d_1506_808" x="0" y="0" width="248.174" height="177.694" filterUnits="userSpaceOnUse" color-interpolation-filters="sRGB">
<feFlood flood-opacity="0" result="BackgroundImageFix"/>
<feColorMatrix in="SourceAlpha" type="matrix" values="0 0 0 0 0 0 0 0 0 0 0 0 0 0 0 0 0 0 127 0" result="hardAlpha"/>
<feOffset dx="10" dy="2"/>
<feGaussianBlur stdDeviation="15"/>
<feColorMatrix type="matrix" values="0 0 0 0 0 0 0 0 0 0 0 0 0 0 0 0 0 0 0.25 0"/>
<feBlend mode="normal" in2="BackgroundImageFix" result="effect1_dropShadow_1506_808"/>
<feBlend mode="normal" in="SourceGraphic" in2="effect1_dropShadow_1506_808" result="shape"/>
</filter>
<linearGradient id="paint0_linear_1506_808" x1="114.101" y1="28.0014" x2="168.763" y2="160.161" gradientUnits="userSpaceOnUse">
<stop stop-color="white" stop-opacity="0.604"/>
<stop offset="1" stop-color="white" stop-opacity="0.2"/>
</linearGradient>
</defs>
</svg>

<svg xmlns="http://www.w3.org/2000/svg" width="249" height="204" fill="none"><path fill="#42A0F0" d="M61.626 151.552c.852.009 9.49 13.495 9.49 18.736a9.49 9.49 0 0 1-18.979 0c0-5.24 8.638-18.746 9.49-18.736"/><path fill="#fff" d="M54.392 173.834c.948.29 2.153-.902 2.691-2.663.539-1.76.206-3.423-.742-3.713s-2.153.903-2.691 2.664c-.539 1.76-.206 3.423.742 3.712"/><path fill="#42A0F0" d="M111.154 151.552c.852.009 9.489 13.495 9.489 18.736a9.489 9.489 0 0 1-18.978 0c0-5.24 8.637-18.746 9.489-18.736"/><path fill="#fff" d="M103.919 173.834c.948.29 2.153-.902 2.691-2.663.539-1.76.207-3.423-.742-3.713-.948-.29-2.153.903-2.691 2.664-.538 1.76-.206 3.423.742 3.712"/><path fill="#42A0F0" d="M160.681 151.552c.852.009 9.489 13.495 9.489 18.736a9.489 9.489 0 0 1-18.978 0c0-5.24 8.637-18.746 9.489-18.736"/><path fill="#fff" d="M153.446 173.834c.948.29 2.153-.902 2.692-2.663.538-1.76.206-3.423-.742-3.713-.949-.29-2.154.903-2.692 2.664-.538 1.76-.206 3.423.742 3.712"/><path fill="#42A0F0" d="M86.656 110.013c.852.009 9.49 13.495 9.49 18.736a9.49 9.49 0 0 1-18.979 0c0-5.24 8.638-18.746 9.49-18.736"/><path fill="#fff" d="M79.422 132.296c.948.289 2.153-.903 2.691-2.664.538-1.76.206-3.423-.742-3.713s-2.153.903-2.691 2.664c-.539 1.76-.207 3.423.742 3.713"/><path fill="#42A0F0" d="M138.846 110.013c.852.009 9.489 13.495 9.489 18.736a9.49 9.49 0 0 1-9.489 9.489 9.492 9.492 0 0 1-9.489-9.489c0-5.24 8.638-18.746 9.489-18.736"/><path fill="#fff" d="M131.612 132.296c.948.289 2.153-.903 2.691-2.664.538-1.76.206-3.423-.742-3.713s-2.153.903-2.692 2.664c-.538 1.76-.206 3.423.743 3.713"/><g filter="url(#a)"><path fill="url(#b)" d="M160.245 145.694H58.297a38.3 38.3 0 0 1-28.622-63.713A38.3 38.3 0 0 1 55.266 69.22a47.94 47.94 0 0 1 89.268-16.75 47.954 47.954 0 0 1 58.598 66.717 38.31 38.31 0 0 1-36.448 26.507z"/><path fill="#fff" fill-opacity=".5" d="M166.684 145.161c4.111 0 8.153-.657 12.014-1.951a37.6 37.6 0 0 0 10.417-5.43 37.9 37.9 0 0 0 8.188-8.275 37.6 37.6 0 0 0 5.322-10.482l.013-.038.018-.036a47 47 0 0 0 3.689-10.127 47.6 47.6 0 0 0 1.297-11.058c0-3.216-.324-6.43-.963-9.553a47.2 47.2 0 0 0-7.132-16.947 47.7 47.7 0 0 0-12.803-12.803 47.178 47.178 0 0 0-16.947-7.132 47.7 47.7 0 0 0-9.552-.962 47.3 47.3 0 0 0-15.536 2.605l-.421.145-.218-.387a47.64 47.64 0 0 0-17.061-17.515 47.2 47.2 0 0 0-11.474-4.933 47.5 47.5 0 0 0-12.806-1.75A47.2 47.2 0 0 0 71.5 40.275a47.4 47.4 0 0 0-10.376 12.932 47 47 0 0 0-5.33 16.085l-.06.424-.426.033c-4.771.374-9.361 1.63-13.643 3.733A37.7 37.7 0 0 0 30.623 81.7a37.64 37.64 0 0 0-10.09 25.697 37.5 37.5 0 0 0 2.967 14.7 37.7 37.7 0 0 0 3.482 6.414 38 38 0 0 0 10.201 10.202 37.7 37.7 0 0 0 6.415 3.481 37.5 37.5 0 0 0 14.7 2.968h108.386m0 .532H58.297c-21.15 0-38.297-17.146-38.297-38.297 0-20.13 15.532-36.634 35.266-38.179C58.53 45.924 78.536 28 102.729 28c17.948 0 33.592 9.865 41.805 24.469a47.9 47.9 0 0 1 15.711-2.635c26.47 0 47.929 21.46 47.929 47.93 0 7.7-1.815 14.976-5.042 21.423-4.973 15.381-19.411 26.506-36.448 26.506"/></g><defs><linearGradient id="b" x1="114.101" x2="168.763" y1="28.001" y2="160.161" gradientUnits="userSpaceOnUse"><stop stop-color="#fff" stop-opacity=".604"/><stop offset="1" stop-color="#fff" stop-opacity=".2"/></linearGradient><filter id="a" width="248.174" height="177.694" x="0" y="0" color-interpolation-filters="sRGB" filterUnits="userSpaceOnUse"><feFlood flood-opacity="0" result="BackgroundImageFix"/><feColorMatrix in="SourceAlpha" result="hardAlpha" values="0 0 0 0 0 0 0 0 0 0 0 0 0 0 0 0 0 0 127 0"/><feOffset dx="10" dy="2"/><feGaussianBlur stdDeviation="15"/><feColorMatrix values="0 0 0 0 0 0 0 0 0 0 0 0 0 0 0 0 0 0 0.25 0"/><feBlend in2="BackgroundImageFix" result="effect1_dropShadow_1506_808"/><feBlend in="SourceGraphic" in2="effect1_dropShadow_1506_808" result="shape"/></filter></defs></svg>
